X:7528
T:Three Captains, The
O:england
M:C
C:Trad
S:O'Neills
K:G
|:D | GG (3BGB cAFA| GG (3BGB dBGB | (3cec Ac (3BdB GB |ABcB (3AcG (3FED |
GG (3BGB cAFA | GG (3BGB dBGB | (3cec AA (3BdB GB | (3EcB (3AGF G2 G:|
|:d | gg (3dcB (3ABc (3def | gg (3dBd (3ecA AA | gg (3bge fg (3afd | (4efge (3ed^c d2 (3dcB|
cd (3ecA Bc (3dBG | ABcB (3ABG (3FED | GG (3BGB cAFA | GG (3BGB dBGB |
(3cec AA (3BdB GB | (3EcB (3AGF G2 G:|
M:C


